cartflows/admin-core/assets/images/plugins/suretriggers/trusted-brands/Stripe_Logo.svg

<svg width="62" height="26" viewBox="0 0 62 26" fill="none" xmlns="http://www.w3.org/2000/svg">
<g clip-path="url(#clip0_4393_128326)">
<path fill-rule="evenodd" clip-rule="evenodd" d="M61.8475 13.369C61.8475 8.98588 59.7279 5.52734 55.6766 5.52734C51.6082 5.52734 49.1467 8.98588 49.1467 13.3347C49.1467 18.4883 52.0526 21.0907 56.2236 21.0907C58.2578 21.0907 59.7962 20.6285 60.9586 19.9779V16.5536C59.7962 17.1357 58.4629 17.4952 56.7706 17.4952C55.1125 17.4952 53.6424 16.9131 53.4544 14.8928H61.8133C61.8133 14.6702 61.8475 13.7799 61.8475 13.369ZM53.4031 11.7424C53.4031 9.80771 54.5826 9.003 55.6595 9.003C56.7022 9.003 57.8133 9.80771 57.8133 11.7424H53.4031Z" fill="#4B5563"/>
<path fill-rule="evenodd" clip-rule="evenodd" d="M42.5484 5.52734C40.8732 5.52734 39.7963 6.31493 39.198 6.86282L38.9758 5.80129H35.2151V25.7649L39.4886 24.8575L39.5057 20.0121C40.1211 20.4573 41.0271 21.0907 42.5313 21.0907C45.5912 21.0907 48.3775 18.6253 48.3775 13.1978C48.3604 8.23253 45.5399 5.52734 42.5484 5.52734ZM41.5228 17.324C40.5142 17.324 39.9159 16.9645 39.5057 16.5193L39.4886 10.1673C39.933 9.67074 40.5484 9.32831 41.5228 9.32831C43.0783 9.32831 44.1553 11.0747 44.1553 13.3176C44.1553 15.6119 43.0954 17.324 41.5228 17.324Z" fill="#4B5563"/>
<path fill-rule="evenodd" clip-rule="evenodd" d="M29.3347 4.5174L33.6253 3.59284V0.117188L29.3347 1.02462V4.5174Z" fill="#4B5563"/>
<path d="M33.6253 5.82031H29.3347V20.8016H33.6253V5.82031Z" fill="#4B5563"/>
<path fill-rule="evenodd" clip-rule="evenodd" d="M24.7364 7.08459L24.4629 5.8176H20.7706V20.7989H25.0441V10.6459C26.0527 9.3275 27.7621 9.5672 28.292 9.75554V5.8176C27.745 5.61214 25.745 5.23547 24.7364 7.08459Z" fill="#4B5563"/>
<path fill-rule="evenodd" clip-rule="evenodd" d="M16.1894 2.10156L12.0185 2.99188L12.0014 16.7062C12.0014 19.2401 13.8988 21.1064 16.4288 21.1064C17.8305 21.1064 18.8561 20.8496 19.4202 20.5414V17.0657C18.8732 17.2883 16.1723 18.0759 16.1723 15.5419V9.46379H19.4202V5.81692H16.1723L16.1894 2.10156Z" fill="#4B5563"/>
<path fill-rule="evenodd" clip-rule="evenodd" d="M4.63387 10.1673C4.63387 9.49952 5.18088 9.2427 6.08686 9.2427C7.38601 9.2427 9.02703 9.63649 10.3262 10.3385V6.31493C8.90737 5.74992 7.50566 5.52734 6.08686 5.52734C2.61678 5.52734 0.309082 7.34222 0.309082 10.3727C0.309082 15.0982 6.80481 14.3449 6.80481 16.3823C6.80481 17.1699 6.12105 17.4268 5.16378 17.4268C3.74498 17.4268 1.93301 16.8446 0.497116 16.057V20.1319C2.08686 20.8168 3.6937 21.1079 5.16378 21.1079C8.71934 21.1079 11.1638 19.3444 11.1638 16.2796C11.1467 11.1774 4.63387 12.0849 4.63387 10.1673Z" fill="#4B5563"/>
</g>
<defs>
<clipPath id="clip0_4393_128326">
<rect width="62" height="26" fill="white"/>
</clipPath>
</defs>
</svg>

<svg width="62" height="26" fill="none" xmlns="http://www.w3.org/2000/svg"><g clip-path="url(#a)" fill="#4B5563"><path fill-rule="evenodd" clip-rule="evenodd" d="M61.847 13.369c0-4.383-2.12-7.842-6.17-7.842-4.069 0-6.53 3.459-6.53 7.808 0 5.153 2.906 7.756 7.077 7.756 2.034 0 3.572-.463 4.735-1.113v-3.424c-1.163.582-2.496.941-4.188.941-1.659 0-3.129-.582-3.317-2.602h8.36c0-.223.033-1.113.033-1.524Zm-8.444-1.627c0-1.934 1.18-2.739 2.257-2.739 1.042 0 2.153.805 2.153 2.74h-4.41ZM42.548 5.527c-1.675 0-2.752.788-3.35 1.336L38.976 5.8h-3.76v19.964l4.273-.907.017-4.846c.615.445 1.521 1.079 3.025 1.079 3.06 0 5.846-2.466 5.846-7.893-.017-4.965-2.837-7.67-5.829-7.67Zm-1.025 11.797c-1.009 0-1.607-.36-2.017-.805l-.017-6.352c.444-.496 1.06-.839 2.034-.839 1.555 0 2.632 1.747 2.632 3.99 0 2.294-1.06 4.006-2.632 4.006ZM29.335 4.517l4.29-.924V.117l-4.29.908v3.492Z"/><path d="M33.625 5.82h-4.29v14.982h4.29V5.82Z"/><path fill-rule="evenodd" clip-rule="evenodd" d="m24.736 7.085-.273-1.267H20.77v14.98h4.273V10.647c1.009-1.319 2.718-1.079 3.248-.89V5.818c-.547-.206-2.547-.583-3.556 1.267ZM16.19 2.102l-4.172.89-.017 13.714c0 2.534 1.898 4.4 4.428 4.4 1.402 0 2.427-.256 2.991-.565v-3.475c-.547.222-3.248 1.01-3.248-1.524V9.464h3.248V5.817h-3.248l.017-3.715ZM4.634 10.167c0-.667.547-.924 1.453-.924 1.299 0 2.94.393 4.24 1.095V6.316c-1.42-.565-2.821-.788-4.24-.788-3.47 0-5.778 1.815-5.778 4.846 0 4.725 6.496 3.972 6.496 6.01 0 .787-.684 1.044-1.641 1.044-1.419 0-3.231-.582-4.667-1.37v4.075c1.59.685 3.197.976 4.667.976 3.555 0 6-1.764 6-4.828-.017-5.103-6.53-4.195-6.53-6.113Z"/></g><defs><clipPath id="a"><path fill="#fff" d="M0 0h62v26H0z"/></clipPath></defs></svg>
